!!! OTL: Berkowitz462
!!! Chapter: 1
!!! Section: IV
!!! Page: 115
!!! Mode: 
!!! Encoder: DJB
**kern
*staff1
*I"Piano
=1-
*clefG2
*k[f#c#g#d#]
*E:
*M3/4
4r
4r
4g#/
=2
2e#/
4f#/
=3
2cn/
4B/
=4
2a/
4g#/
=5
4r
4.B/
8g#/
=6
2b\
4a/
=7
4r
4.B/
8a#/
=8
2cc#\
4b\
=9
4r
4r
4ee\
=10
2b#\
4cc#\
=11
4.f#/
8g#/
8a\L
8cc#\J
=12
2a#/
4b\
=13
2e/
4d#/
=14
!!linebreak:original
4c#/
4b\
4a/
=15
4g#/
4e#/
4f#/
=16
4cn/
4B/
4g#/
=17
4e/
2r
==
*-
